Newaita-dark/apps/16/com.github.bartzaalberg.lottery.svg

<svg height="16" viewBox="0 0 16 16" width="16" xmlns="http://www.w3.org/2000/svg" xmlns:xlink="http://www.w3.org/1999/xlink"><linearGradient id="a"><stop offset="0" stop-opacity=".313726"/><stop offset=".222222" stop-opacity=".27451"/><stop offset="1" stop-opacity="0"/></linearGradient><radialGradient id="b" cx="450.908936" cy="189.579361" gradientTransform="matrix(.00000009 -.0390662 -.0703192 -.00000005 22.261576 31.797665)" gradientUnits="userSpaceOnUse" r="21.166656" xlink:href="#a"/><radialGradient id="c" cx="450.908936" cy="189.579361" gradientTransform="matrix(-.00000009 .0390662 .0703192 .00000005 -6.385059 -3.763741)" gradientUnits="userSpaceOnUse" r="21.166656" xlink:href="#a"/><radialGradient id="d" cx="450.908936" cy="189.579361" gradientTransform="matrix(-.00000009 -.0390662 .0703192 -.00000005 -6.385059 31.797665)" gradientUnits="userSpaceOnUse" r="21.166656" xlink:href="#a"/><radialGradient id="e" cx="450.908936" cy="189.579361" gradientTransform="matrix(.00000009 .0390662 -.0703192 .00000005 22.261575 -3.763741)" gradientUnits="userSpaceOnUse" r="21.166656" xlink:href="#a"/><linearGradient id="f" gradientTransform="matrix(.00668003 0 0 .031253 6.232693 6.719392)" gradientUnits="userSpaceOnUse" x1="255.323059" x2="255.323044" y1="233.5" y2="254.666656"><stop offset="0" stop-opacity=".27451"/><stop offset="1" stop-opacity="0"/></linearGradient><linearGradient id="g" gradientUnits="userSpaceOnUse" x1="7.938262" x2="7.938262" y1="1.44805249998" y2="14.0169675"><stop offset="0" stop-color="#ef5350"/><stop offset="1" stop-color="#f44336"/></linearGradient><linearGradient id="h" gradientUnits="userSpaceOnUse" x1="7.9382592" x2="7.9382592" y1="14.01696600048" y2="1.4480552201"><stop offset="0" stop-color="#bdbdbd"/><stop offset="1" stop-color="#e0e0e0"/></linearGradient><path d="m9.097656 14.015625h1.320313v-.660156h-1.320313zm0 0" fill="url(#b)"/><path d="m6.78125 14.015625h-1.324219v.664063h1.324219zm0 0" fill="url(#c)"/><path d="m6.78125 14.015625h-1.324219v-.660156h1.324219zm0 0" fill="url(#d)"/><path d="m9.097656 14.015625h1.320313v.664063h-1.320313zm0 0" fill="url(#e)"/><path d="m6.78125 13.851562h2.316406v.828126h-2.316406zm0 0" fill="url(#f)"/><path d="m7.9375 1.449219c3.472656 0 6.285156 2.8125 6.285156 6.285156 0 3.46875-2.8125 6.28125-6.285156 6.28125-3.46875 0-6.285156-2.8125-6.285156-6.28125 0-3.472656 2.816406-6.285156 6.285156-6.285156zm0 0" fill="url(#g)"/><path d="m7.9375 14.015625c-3.480469 0-6.285156-2.800781-6.285156-6.28125 0-.023437 0-.042969 0-.0625.035156 3.453125 2.824218 6.222656 6.285156 6.222656s6.253906-2.769531 6.285156-6.222656v.0625c0 3.480469-2.804687 6.28125-6.285156 6.28125zm0 0" fill-opacity=".196078"/><path d="m7.9375 1.449219c-3.480469 0-6.285156 2.800781-6.285156 6.285156v.058594c.035156-3.453125 2.824218-6.222657 6.285156-6.222657s6.253906 2.769532 6.285156 6.222657c0-.019531 0-.039063 0-.058594 0-3.484375-2.804687-6.285156-6.285156-6.285156zm0 0" fill="#fff" fill-opacity=".392157"/><path d="m7.9375 1.402344c-3.507812 0-6.332031 2.824218-6.332031 6.332031 0 3.503906 2.824219 6.328125 6.332031 6.328125s6.332031-2.824219 6.332031-6.328125c0-3.507813-2.824219-6.332031-6.332031-6.332031zm0 .09375c3.457031 0 6.238281 2.78125 6.238281 6.238281 0 3.453125-2.78125 6.234375-6.238281 6.234375s-6.238281-2.78125-6.238281-6.234375c0-3.457031 2.78125-6.238281 6.238281-6.238281zm0 0" fill="#212121"/><path d="m7.9375 4.257812c-.183594 0-.328125.148438-.328125.332032 0 .15625.105469.289062.253906.324218-.347656.730469-.941406 2.15625-1.25 2.15625-.289062 0-1.101562-.515624-1.742187-1.09375.054687-.058593.089844-.140624.089844-.230468 0-.179688-.148438-.328125-.332032-.328125-.179687 0-.328125.148437-.328125.328125v.003906l.027344.132812c.050781.113282.167969.195313.300781.195313.027344 0 .046875 0 .070313-.007813l.652343 3.035157c.890626.28125 2.21875.28125 2.585938.28125s1.695312 0 2.589844-.28125l.648437-3.035157c.023438.007813.046875.007813.070313.007813.136718 0 .25-.082031.304687-.195313l.027344-.132812s0 0 0-.003906c0-.179688-.148437-.328125-.332031-.328125s-.332032.148437-.332032.328125c0 .089844.035157.171875.089844.230468-.640625.578126-1.449218 1.09375-1.742187 1.09375-.308594 0-.898438-1.425781-1.246094-2.15625.144531-.035156.253906-.167968.253906-.324218 0-.183594-.148437-.332032-.332031-.332032zm-2.492188 5.300782.175782.820312c.664062.332032 1.988281.332032 2.316406.332032.332031 0 1.65625 0 2.316406-.332032l.175782-.820312c-.890626.25-2.136719.25-2.492188.25-.351562 0-1.601562 0-2.492188-.25zm0 0" fill="url(#h)"/><path d="m7.9375 4.257812c-.183594 0-.328125.148438-.328125.332032 0 .027344 0 .058594.007813.082031.039062-.140625.167968-.246094.320312-.246094.15625 0 .285156.105469.320312.246094.007813-.023437.011719-.054687.011719-.082031 0-.183594-.148437-.332032-.332031-.332032zm-.140625.796876c-.355469.761718-.894531 2.015624-1.183594 2.015624-.28125 0-1.046875-.480468-1.675781-1.035156-.015625.039063-.039062.074219-.066406.105469.640625.578125 1.453125 1.097656 1.742187 1.097656.308594 0 .902344-1.425781 1.25-2.160156-.023437-.007813-.046875-.015625-.066406-.023437zm.285156 0c-.023437.007812-.042969.015624-.066406.023437.347656.734375.9375 2.160156 1.246094 2.160156.292969 0 1.101562-.519531 1.742187-1.097656-.027344-.03125-.050781-.066406-.066406-.105469-.628906.554688-1.394531 1.035156-1.675781 1.035156-.289063 0-.828125-1.253906-1.179688-2.015624zm-3.453125.363281c-.179687 0-.328125.148437-.328125.328125v.003906l.011719.066406c.042969-.136718.167969-.234375.316406-.234375.15625 0 .285156.105469.320313.25.007812-.027343.011719-.054687.011719-.085937 0-.179688-.148438-.328125-.332032-.328125zm6.617188 0c-.183594 0-.332032.148437-.332032.328125 0 .03125.003907.058594.011719.085937.035157-.144531.164063-.25.320313-.25.148437 0 .277344.097657.316406.234375l.015625-.066406s0 0 0-.003906c0-.179688-.148437-.328125-.332031-.328125zm-5.800782 4.140625.039063.175781c.886719.238281 2.105469.238281 2.453125.238281.351562 0 1.566406 0 2.453125-.238281l.039063-.175781c-.890626.25-2.136719.25-2.492188.25-.351562 0-1.601562 0-2.492188-.25zm0 0" fill="#fff"/><path d="m8.246094 4.746094c-.039063.097656-.125.171875-.230469.195312.027344.066406.0625.136719.09375.210938.097656-.058594.160156-.164063.160156-.28125 0-.046875-.007812-.085938-.023437-.125zm-.613282 0c-.015624.039062-.023437.078125-.023437.125 0 .117187.0625.222656.15625.28125.035156-.074219.066406-.144532.097656-.210938-.105469-.023437-.191406-.097656-.230469-.195312zm-3.308593 1.152344c-.015625.039062-.023438.082031-.023438.128906v.003906l.027344.128906c.050781.117188.167969.199219.300781.199219.027344 0 .046875-.003906.070313-.007813l.652343 3.035157c.890626.277343 2.21875.277343 2.585938.277343s1.695312 0 2.589844-.277343l.648437-3.035157c.023438.003907.046875.007813.070313.007813.136718 0 .25-.082031.304687-.199219l.027344-.128906v-.003906c0-.046875-.011719-.089844-.027344-.128906v.011718c-.054687.117188-.167969.199219-.304687.199219-.023438 0-.046875-.003906-.070313-.007813l-.648437 3.035157c-.894532.28125-2.222656.28125-2.589844.28125s-1.695312 0-2.585938-.28125l-.652343-3.035157c-.023438.003907-.042969.007813-.070313.007813-.132812 0-.25-.082031-.300781-.199219zm.613281.003906c-.015625.039062-.039062.074218-.066406.105468.027344.023438.058594.050782.085937.074219.003907-.019531.003907-.035156.003907-.054687 0-.042969-.007813-.085938-.023438-.125zm6 0c-.015625.039062-.023438.082031-.023438.125 0 .019531.003907.035156.003907.054687.03125-.023437.058593-.050781.085937-.074219-.027344-.03125-.050781-.066406-.066406-.105468zm-5.492188 3.933594.175782.820312c.664062.332031 1.988281.332031 2.316406.332031.332031 0 1.65625 0 2.316406-.332031l.175782-.820312c-.019532.003906-.039063.011718-.054688.015624l-.121094.558594c-.660156.332032-1.984375.332032-2.316406.332032-.328125 0-1.652344 0-2.316406-.332032l-.117188-.558594c-.019531-.003906-.039062-.011718-.058594-.015624zm0 0" fill-opacity=".235294"/><path d="m959.908384 514.911485c-22.202606 0-39.681252 17.951043-39.681252 40.153648 0 18.895835 12.754688 34.957294 30.70573 39.208857-42.043231 88.338025-113.847401 260.762513-151.166674 260.762513-34.957294 0-133.215632-62.356253-210.688553-132.27084 6.613542-7.085938 10.865105-17.006251 10.865105-27.871356 0-21.730209-17.951043-39.681252-40.153648-39.681252-21.73021 0-39.681252 17.951043-39.681252 39.681252v.472396l3.306771 16.061459c6.141146 13.69948 20.313022 23.619793 36.374481 23.619793 3.306771 0 5.66875 0 8.503125-.944791l78.890109 367.051581c107.706255 34.012502 268.320847 34.012502 312.726058 34.012502 44.40521 0 205.019802 0 313.198454-34.012502l78.417712-367.051581c2.834375.944791 5.668751.944791 8.503126.944791 16.533855 0 30.233335-9.920313 36.846877-23.619793l3.306771-16.061459s0 0 0-.472396c0-21.730209-17.951043-39.681252-40.153648-39.681252-22.202606 0-40.153648 17.951043-40.153648 39.681252 0 10.865105 4.251562 20.785418 10.865104 27.871356-77.47292 69.914587-175.258863 132.27084-210.688552 132.27084-37.319273 0-108.651048-172.424488-150.694279-260.762513 17.478647-4.251563 30.705731-20.313022 30.705731-39.208857 0-22.202605-17.951043-40.153648-40.153648-40.153648zm-301.388558 641.04118 21.257814 99.20313c80.307296 40.153648 240.449492 40.153648 280.130744 40.153648 40.153648 0 200.295844 0 280.130744-40.153648l21.257813-99.20313c-107.706255 30.233335-258.400534 30.233335-301.388557 30.233335-42.515627 0-193.682302 0-301.388558-30.233335zm0 0" fill="none" stroke="#212121" stroke-width="11.338583" transform="scale(.00826902)"/></svg>

<?xml version="1.0" encoding="UTF-8"?>
<svg xmlns="http://www.w3.org/2000/svg" xmlns:xlink="http://www.w3.org/1999/xlink" width="16px" height="16px" viewBox="0 0 16 16" version="1.1">
<defs>
<radialGradient id="radial0" gradientUnits="userSpaceOnUse" cx="450.908936" cy="189.579361" fx="450.908936" fy="189.579361" r="21.166656" gradientTransform="matrix(0.0000000870852,-0.0390662,-0.0703192,-0.0000000507693,22.261576,31.797665)">
<stop offset="0" style="stop-color:rgb(0%,0%,0%);stop-opacity:0.313726;"/>
<stop offset="0.222222" style="stop-color:rgb(0%,0%,0%);stop-opacity:0.27451;"/>
<stop offset="1" style="stop-color:rgb(0%,0%,0%);stop-opacity:0;"/>
</radialGradient>
<radialGradient id="radial1" gradientUnits="userSpaceOnUse" cx="450.908936" cy="189.579361" fx="450.908936" fy="189.579361" r="21.166656" gradientTransform="matrix(-0.0000000870852,0.0390662,0.0703192,0.0000000507693,-6.385059,-3.763741)">
<stop offset="0" style="stop-color:rgb(0%,0%,0%);stop-opacity:0.313726;"/>
<stop offset="0.222222" style="stop-color:rgb(0%,0%,0%);stop-opacity:0.27451;"/>
<stop offset="1" style="stop-color:rgb(0%,0%,0%);stop-opacity:0;"/>
</radialGradient>
<radialGradient id="radial2" gradientUnits="userSpaceOnUse" cx="450.908936" cy="189.579361" fx="450.908936" fy="189.579361" r="21.166656" gradientTransform="matrix(-0.0000000870852,-0.0390662,0.0703192,-0.0000000507693,-6.385059,31.797665)">
<stop offset="0" style="stop-color:rgb(0%,0%,0%);stop-opacity:0.313726;"/>
<stop offset="0.222222" style="stop-color:rgb(0%,0%,0%);stop-opacity:0.27451;"/>
<stop offset="1" style="stop-color:rgb(0%,0%,0%);stop-opacity:0;"/>
</radialGradient>
<radialGradient id="radial3" gradientUnits="userSpaceOnUse" cx="450.908936" cy="189.579361" fx="450.908936" fy="189.579361" r="21.166656" gradientTransform="matrix(0.0000000870852,0.0390662,-0.0703192,0.0000000507693,22.261575,-3.763741)">
<stop offset="0" style="stop-color:rgb(0%,0%,0%);stop-opacity:0.313726;"/>
<stop offset="0.222222" style="stop-color:rgb(0%,0%,0%);stop-opacity:0.27451;"/>
<stop offset="1" style="stop-color:rgb(0%,0%,0%);stop-opacity:0;"/>
</radialGradient>
<linearGradient id="linear0" gradientUnits="userSpaceOnUse" x1="255.323059" y1="233.5" x2="255.323044" y2="254.666656" gradientTransform="matrix(0.00668003,0,0,0.031253,6.232693,6.719392)">
<stop offset="0" style="stop-color:rgb(0%,0%,0%);stop-opacity:0.27451;"/>
<stop offset="1" style="stop-color:rgb(0%,0%,0%);stop-opacity:0;"/>
</linearGradient>
<linearGradient id="linear1" gradientUnits="userSpaceOnUse" x1="254" y1="-168.666672" x2="254" y2="233.5" gradientTransform="matrix(0.031253,0,0,0.031253,0,6.719392)">
<stop offset="0" style="stop-color:rgb(93.725491%,32.549021%,31.37255%);stop-opacity:1;"/>
<stop offset="1" style="stop-color:rgb(95.686275%,26.274511%,21.176471%);stop-opacity:1;"/>
</linearGradient>
<linearGradient id="linear2" gradientUnits="userSpaceOnUse" x1="960" y1="1695.118164" x2="960" y2="175.118118" gradientTransform="matrix(0.00826902,0,0,0.00826902,0,0)">
<stop offset="0" style="stop-color:rgb(74.117649%,74.117649%,74.117649%);stop-opacity:1;"/>
<stop offset="1" style="stop-color:rgb(87.843138%,87.843138%,87.843138%);stop-opacity:1;"/>
</linearGradient>
</defs>
<g id="surface1">
<path style=" stroke:none;fill-rule:nonzero;fill:url(#radial0);" d="M 9.097656 14.015625 L 10.417969 14.015625 L 10.417969 13.355469 L 9.097656 13.355469 Z M 9.097656 14.015625 "/>
<path style=" stroke:none;fill-rule:nonzero;fill:url(#radial1);" d="M 6.78125 14.015625 L 5.457031 14.015625 L 5.457031 14.679688 L 6.78125 14.679688 Z M 6.78125 14.015625 "/>
<path style=" stroke:none;fill-rule:nonzero;fill:url(#radial2);" d="M 6.78125 14.015625 L 5.457031 14.015625 L 5.457031 13.355469 L 6.78125 13.355469 Z M 6.78125 14.015625 "/>
<path style=" stroke:none;fill-rule:nonzero;fill:url(#radial3);" d="M 9.097656 14.015625 L 10.417969 14.015625 L 10.417969 14.679688 L 9.097656 14.679688 Z M 9.097656 14.015625 "/>
<path style=" stroke:none;fill-rule:nonzero;fill:url(#linear0);" d="M 6.78125 13.851562 L 9.097656 13.851562 L 9.097656 14.679688 L 6.78125 14.679688 Z M 6.78125 13.851562 "/>
<path style=" stroke:none;fill-rule:nonzero;fill:url(#linear1);" d="M 7.9375 1.449219 C 11.410156 1.449219 14.222656 4.261719 14.222656 7.734375 C 14.222656 11.203125 11.410156 14.015625 7.9375 14.015625 C 4.46875 14.015625 1.652344 11.203125 1.652344 7.734375 C 1.652344 4.261719 4.46875 1.449219 7.9375 1.449219 Z M 7.9375 1.449219 "/>
<path style=" stroke:none;fill-rule:nonzero;fill:rgb(0%,0%,0%);fill-opacity:0.196078;" d="M 7.9375 14.015625 C 4.457031 14.015625 1.652344 11.214844 1.652344 7.734375 C 1.652344 7.710938 1.652344 7.691406 1.652344 7.671875 C 1.6875 11.125 4.476562 13.894531 7.9375 13.894531 C 11.398438 13.894531 14.191406 11.125 14.222656 7.671875 C 14.222656 7.691406 14.222656 7.710938 14.222656 7.734375 C 14.222656 11.214844 11.417969 14.015625 7.9375 14.015625 Z M 7.9375 14.015625 "/>
<path style=" stroke:none;fill-rule:nonzero;fill:rgb(100%,100%,100%);fill-opacity:0.392157;" d="M 7.9375 1.449219 C 4.457031 1.449219 1.652344 4.25 1.652344 7.734375 C 1.652344 7.753906 1.652344 7.773438 1.652344 7.792969 C 1.6875 4.339844 4.476562 1.570312 7.9375 1.570312 C 11.398438 1.570312 14.191406 4.339844 14.222656 7.792969 C 14.222656 7.773438 14.222656 7.753906 14.222656 7.734375 C 14.222656 4.25 11.417969 1.449219 7.9375 1.449219 Z M 7.9375 1.449219 "/>
<path style=" stroke:none;fill-rule:nonzero;fill:rgb(12.941177%,12.941177%,12.941177%);fill-opacity:1;" d="M 7.9375 1.402344 C 4.429688 1.402344 1.605469 4.226562 1.605469 7.734375 C 1.605469 11.238281 4.429688 14.0625 7.9375 14.0625 C 11.445312 14.0625 14.269531 11.238281 14.269531 7.734375 C 14.269531 4.226562 11.445312 1.402344 7.9375 1.402344 Z M 7.9375 1.496094 C 11.394531 1.496094 14.175781 4.277344 14.175781 7.734375 C 14.175781 11.1875 11.394531 13.96875 7.9375 13.96875 C 4.480469 13.96875 1.699219 11.1875 1.699219 7.734375 C 1.699219 4.277344 4.480469 1.496094 7.9375 1.496094 Z M 7.9375 1.496094 "/>
<path style=" stroke:none;fill-rule:nonzero;fill:url(#linear2);" d="M 7.9375 4.257812 C 7.753906 4.257812 7.609375 4.40625 7.609375 4.589844 C 7.609375 4.746094 7.714844 4.878906 7.863281 4.914062 C 7.515625 5.644531 6.921875 7.070312 6.613281 7.070312 C 6.324219 7.070312 5.511719 6.554688 4.871094 5.976562 C 4.925781 5.917969 4.960938 5.835938 4.960938 5.746094 C 4.960938 5.566406 4.8125 5.417969 4.628906 5.417969 C 4.449219 5.417969 4.300781 5.566406 4.300781 5.746094 C 4.300781 5.75 4.300781 5.75 4.300781 5.75 L 4.328125 5.882812 C 4.378906 5.996094 4.496094 6.078125 4.628906 6.078125 C 4.65625 6.078125 4.675781 6.078125 4.699219 6.070312 L 5.351562 9.105469 C 6.242188 9.386719 7.570312 9.386719 7.9375 9.386719 C 8.304688 9.386719 9.632812 9.386719 10.527344 9.105469 L 11.175781 6.070312 C 11.199219 6.078125 11.222656 6.078125 11.246094 6.078125 C 11.382812 6.078125 11.496094 5.996094 11.550781 5.882812 L 11.578125 5.75 C 11.578125 5.75 11.578125 5.75 11.578125 5.746094 C 11.578125 5.566406 11.429688 5.417969 11.246094 5.417969 C 11.0625 5.417969 10.914062 5.566406 10.914062 5.746094 C 10.914062 5.835938 10.949219 5.917969 11.003906 5.976562 C 10.363281 6.554688 9.554688 7.070312 9.261719 7.070312 C 8.953125 7.070312 8.363281 5.644531 8.015625 4.914062 C 8.160156 4.878906 8.269531 4.746094 8.269531 4.589844 C 8.269531 4.40625 8.121094 4.257812 7.9375 4.257812 Z M 5.445312 9.558594 L 5.621094 10.378906 C 6.285156 10.710938 7.609375 10.710938 7.9375 10.710938 C 8.269531 10.710938 9.59375 10.710938 10.253906 10.378906 L 10.429688 9.558594 C 9.539062 9.808594 8.292969 9.808594 7.9375 9.808594 C 7.585938 9.808594 6.335938 9.808594 5.445312 9.558594 Z M 5.445312 9.558594 "/>
<path style=" stroke:none;fill-rule:nonzero;fill:rgb(100%,100%,100%);fill-opacity:1;" d="M 7.9375 4.257812 C 7.753906 4.257812 7.609375 4.40625 7.609375 4.589844 C 7.609375 4.617188 7.609375 4.648438 7.617188 4.671875 C 7.65625 4.53125 7.785156 4.425781 7.9375 4.425781 C 8.09375 4.425781 8.222656 4.53125 8.257812 4.671875 C 8.265625 4.648438 8.269531 4.617188 8.269531 4.589844 C 8.269531 4.40625 8.121094 4.257812 7.9375 4.257812 Z M 7.796875 5.054688 C 7.441406 5.816406 6.902344 7.070312 6.613281 7.070312 C 6.332031 7.070312 5.566406 6.589844 4.9375 6.035156 C 4.921875 6.074219 4.898438 6.109375 4.871094 6.140625 C 5.511719 6.71875 6.324219 7.238281 6.613281 7.238281 C 6.921875 7.238281 7.515625 5.8125 7.863281 5.078125 C 7.839844 5.070312 7.816406 5.0625 7.796875 5.054688 Z M 8.082031 5.054688 C 8.058594 5.0625 8.039062 5.070312 8.015625 5.078125 C 8.363281 5.8125 8.953125 7.238281 9.261719 7.238281 C 9.554688 7.238281 10.363281 6.71875 11.003906 6.140625 C 10.976562 6.109375 10.953125 6.074219 10.9375 6.035156 C 10.308594 6.589844 9.542969 7.070312 9.261719 7.070312 C 8.972656 7.070312 8.433594 5.816406 8.082031 5.054688 Z M 4.628906 5.417969 C 4.449219 5.417969 4.300781 5.566406 4.300781 5.746094 C 4.300781 5.75 4.300781 5.75 4.300781 5.75 L 4.3125 5.816406 C 4.355469 5.679688 4.480469 5.582031 4.628906 5.582031 C 4.785156 5.582031 4.914062 5.6875 4.949219 5.832031 C 4.957031 5.804688 4.960938 5.777344 4.960938 5.746094 C 4.960938 5.566406 4.8125 5.417969 4.628906 5.417969 Z M 11.246094 5.417969 C 11.0625 5.417969 10.914062 5.566406 10.914062 5.746094 C 10.914062 5.777344 10.917969 5.804688 10.925781 5.832031 C 10.960938 5.6875 11.089844 5.582031 11.246094 5.582031 C 11.394531 5.582031 11.523438 5.679688 11.5625 5.816406 L 11.578125 5.75 C 11.578125 5.75 11.578125 5.75 11.578125 5.746094 C 11.578125 5.566406 11.429688 5.417969 11.246094 5.417969 Z M 5.445312 9.558594 L 5.484375 9.734375 C 6.371094 9.972656 7.589844 9.972656 7.9375 9.972656 C 8.289062 9.972656 9.503906 9.972656 10.390625 9.734375 L 10.429688 9.558594 C 9.539062 9.808594 8.292969 9.808594 7.9375 9.808594 C 7.585938 9.808594 6.335938 9.808594 5.445312 9.558594 Z M 5.445312 9.558594 "/>
<path style=" stroke:none;fill-rule:nonzero;fill:rgb(0%,0%,0%);fill-opacity:0.235294;" d="M 8.246094 4.746094 C 8.207031 4.84375 8.121094 4.917969 8.015625 4.941406 C 8.042969 5.007812 8.078125 5.078125 8.109375 5.152344 C 8.207031 5.09375 8.269531 4.988281 8.269531 4.871094 C 8.269531 4.824219 8.261719 4.785156 8.246094 4.746094 Z M 7.632812 4.746094 C 7.617188 4.785156 7.609375 4.824219 7.609375 4.871094 C 7.609375 4.988281 7.671875 5.09375 7.765625 5.152344 C 7.800781 5.078125 7.832031 5.007812 7.863281 4.941406 C 7.757812 4.917969 7.671875 4.84375 7.632812 4.746094 Z M 4.324219 5.898438 C 4.308594 5.9375 4.300781 5.980469 4.300781 6.027344 C 4.300781 6.027344 4.300781 6.03125 4.300781 6.03125 L 4.328125 6.160156 C 4.378906 6.277344 4.496094 6.359375 4.628906 6.359375 C 4.65625 6.359375 4.675781 6.355469 4.699219 6.351562 L 5.351562 9.386719 C 6.242188 9.664062 7.570312 9.664062 7.9375 9.664062 C 8.304688 9.664062 9.632812 9.664062 10.527344 9.386719 L 11.175781 6.351562 C 11.199219 6.355469 11.222656 6.359375 11.246094 6.359375 C 11.382812 6.359375 11.496094 6.277344 11.550781 6.160156 L 11.578125 6.03125 C 11.578125 6.03125 11.578125 6.027344 11.578125 6.027344 C 11.578125 5.980469 11.566406 5.9375 11.550781 5.898438 L 11.550781 5.910156 C 11.496094 6.027344 11.382812 6.109375 11.246094 6.109375 C 11.222656 6.109375 11.199219 6.105469 11.175781 6.101562 L 10.527344 9.136719 C 9.632812 9.417969 8.304688 9.417969 7.9375 9.417969 C 7.570312 9.417969 6.242188 9.417969 5.351562 9.136719 L 4.699219 6.101562 C 4.675781 6.105469 4.65625 6.109375 4.628906 6.109375 C 4.496094 6.109375 4.378906 6.027344 4.328125 5.910156 Z M 4.9375 5.902344 C 4.921875 5.941406 4.898438 5.976562 4.871094 6.007812 C 4.898438 6.03125 4.929688 6.058594 4.957031 6.082031 C 4.960938 6.0625 4.960938 6.046875 4.960938 6.027344 C 4.960938 5.984375 4.953125 5.941406 4.9375 5.902344 Z M 10.9375 5.902344 C 10.921875 5.941406 10.914062 5.984375 10.914062 6.027344 C 10.914062 6.046875 10.917969 6.0625 10.917969 6.082031 C 10.949219 6.058594 10.976562 6.03125 11.003906 6.007812 C 10.976562 5.976562 10.953125 5.941406 10.9375 5.902344 Z M 5.445312 9.835938 L 5.621094 10.65625 C 6.285156 10.988281 7.609375 10.988281 7.9375 10.988281 C 8.269531 10.988281 9.59375 10.988281 10.253906 10.65625 L 10.429688 9.835938 C 10.410156 9.839844 10.390625 9.847656 10.375 9.851562 L 10.253906 10.410156 C 9.59375 10.742188 8.269531 10.742188 7.9375 10.742188 C 7.609375 10.742188 6.285156 10.742188 5.621094 10.410156 L 5.503906 9.851562 C 5.484375 9.847656 5.464844 9.839844 5.445312 9.835938 Z M 5.445312 9.835938 "/>
<path style="fill:none;stroke-width:11.338583;stroke-linecap:butt;stroke-linejoin:miter;stroke:rgb(12.941177%,12.941177%,12.941177%);stroke-opacity:1;stroke-miterlimit:4;" d="M 959.908384 514.911485 C 937.705778 514.911485 920.227132 532.862528 920.227132 555.065133 C 920.227132 573.960968 932.98182 590.022427 950.932862 594.27399 C 908.889631 682.612015 837.085461 855.036503 799.766188 855.036503 C 764.808894 855.036503 666.550556 792.68025 589.077635 722.765663 C 595.691177 715.679725 599.94274 705.759412 599.94274 694.894307 C 599.94274 673.164098 581.991697 655.213055 559.789092 655.213055 C 538.058882 655.213055 520.10784 673.164098 520.10784 694.894307 C 520.10784 695.366703 520.10784 695.366703 520.10784 695.366703 L 523.414611 711.428162 C 529.555757 725.127642 543.727633 735.047955 559.789092 735.047955 C 563.095863 735.047955 565.457842 735.047955 568.292217 734.103164 L 647.182326 1101.154745 C 754.888581 1135.167247 915.503173 1135.167247 959.908384 1135.167247 C 1004.313594 1135.167247 1164.928186 1135.167247 1273.106838 1101.154745 L 1351.52455 734.103164 C 1354.358925 735.047955 1357.193301 735.047955 1360.027676 735.047955 C 1376.561531 735.047955 1390.261011 725.127642 1396.874553 711.428162 L 1400.181324 695.366703 C 1400.181324 695.366703 1400.181324 695.366703 1400.181324 694.894307 C 1400.181324 673.164098 1382.230281 655.213055 1360.027676 655.213055 C 1337.82507 655.213055 1319.874028 673.164098 1319.874028 694.894307 C 1319.874028 705.759412 1324.12559 715.679725 1330.739132 722.765663 C 1253.266212 792.68025 1155.480269 855.036503 1120.05058 855.036503 C 1082.731307 855.036503 1011.399532 682.612015 969.356301 594.27399 C 986.834948 590.022427 1000.062032 573.960968 1000.062032 555.065133 C 1000.062032 532.862528 982.110989 514.911485 959.908384 514.911485 Z M 658.519826 1155.952665 L 679.77764 1255.155795 C 760.084936 1295.309443 920.227132 1295.309443 959.908384 1295.309443 C 1000.062032 1295.309443 1160.204228 1295.309443 1240.039128 1255.155795 L 1261.296941 1155.952665 C 1153.590686 1186.186 1002.896407 1186.186 959.908384 1186.186 C 917.392757 1186.186 766.226082 1186.186 658.519826 1155.952665 Z M 658.519826 1155.952665 " transform="matrix(0.00826902,0,0,0.00826902,0,0)"/>
</g>
</svg>
